lib/flags/s/LCA.svg

<svg xmlns="http://www.w3.org/2000/svg" fill="none" viewBox="0 0 16 12"><mask id="LCA_svg__a" width="16" height="12" x="0" y="0" maskUnits="userSpaceOnUse"><path fill="#fff" d="M0 0h16v12H0z"/></mask><g fill-rule="evenodd" clip-rule="evenodd" mask="url(#LCA_svg__a)"><path fill="#7CCFF5" d="M0 0h16v12H0V0z"/><path fill="#F7FCFF" d="M8 2l4 8H4l4-8z"/><path fill="#272727" d="M8 4l3.5 6h-7L8 4z"/><path fill="#FECA00" d="M8 7l4 3H4l4-3z"/></g></svg>

<svg xmlns="http://www.w3.org/2000/svg" fill="none" viewBox="0 0 16 12"><mask id="LCA_svg__a" width="16" height="12" x="0" y="0" mask-type="alpha" maskUnits="userSpaceOnUse"><path fill="#fff" d="M0 0H16V12H0z"/></mask><g fill-rule="evenodd" clip-rule="evenodd" mask="url(#LCA_svg__a)"><path fill="#7CCFF5" d="M0 0H16V12H0V0Z"/><path fill="#F7FCFF" d="M8 2L12 10H4L8 2Z"/><path fill="#272727" d="M8 4L11.5 10H4.5L8 4Z"/><path fill="#FECA00" d="M8 7L12 10H4L8 7Z"/></g></svg>
